X: 35827
T: Saltón De Samartín
R: three-two
M: 3/2
K: Bminor
|:B2B2BcdBc4|d2d2defde4|
a2a2a2gfe4|1 f2 f2 f2 edc4:|2 f2 f2 f2 edc3A||
M:2/4
|:dcde|fgfd|edce|1 d3 A:|2 d3e||
fg2g|g2Be|fg2g|g2 ag|fa eg|f3 f|
|:gf eg|fe df|ed ce|1 d3 f:|2 d4||

